packages/kaspersky-hexa-ui-icons/src/iconsSVGs/16/LicenseBadge.svg

<svg width="16" height="16" viewBox="0 0 16 16" fill="none" xmlns="http://www.w3.org/2000/svg">
<path fill-rule="evenodd" clip-rule="evenodd" d="M7.99978 0.984131C5.3183 0.984131 3.14453 3.1579 3.14453 5.83938C3.14453 7.20805 3.71085 8.44444 4.62195 9.32703V14.366C4.62195 14.598 4.74555 14.8124 4.9463 14.9286C5.14704 15.0448 5.3945 15.0452 5.59564 14.9297L8.04576 13.5227L10.4158 14.9254C10.6168 15.0443 10.866 15.0464 11.0689 14.9307C11.2717 14.8151 11.3969 14.5995 11.3969 14.366V9.30823C12.2967 8.42693 12.855 7.19836 12.855 5.83938C12.855 3.1579 10.6813 0.984131 7.99978 0.984131ZM4.44453 5.83938C4.44453 3.87587 6.03627 2.28413 7.99978 2.28413C9.96328 2.28413 11.555 3.87587 11.555 5.83938C11.555 7.80288 9.96328 9.39462 7.99978 9.39462C6.03627 9.39462 4.44453 7.80288 4.44453 5.83938ZM10.0969 10.2196C9.4621 10.5241 8.75085 10.6946 7.99978 10.6946C7.2563 10.6946 6.55185 10.5275 5.92195 10.2288V13.2432L7.727 12.2066C7.93009 12.09 8.18021 12.0917 8.38176 12.2109L10.0969 13.226V10.2196Z" fill="black"/>
</svg>

<svg xmlns="http://www.w3.org/2000/svg" width="16" height="16" fill="none" viewBox="0 0 16 16"><path fill="#000" fill-rule="evenodd" d="M7.9998.9841c-2.6815 0-4.8553 2.1738-4.8553 4.8553 0 1.3686.5664 2.605 1.4775 3.4876v5.039a.65.65 0 0 0 .9736.5637l2.4502-1.407 2.37 1.4027a.65.65 0 0 0 .9811-.5594V9.3082c.8998-.8813 1.4581-2.1098 1.4581-3.4688 0-2.6815-2.1737-4.8553-4.8552-4.8553M4.4445 5.8394c0-1.9635 1.5918-3.5553 3.5553-3.5553S11.555 3.876 11.555 5.8394 9.9633 9.3946 7.9998 9.3946 4.4445 7.803 4.4445 5.8394m5.6524 4.3802a4.836 4.836 0 0 1-2.0971.475 4.84 4.84 0 0 1-2.0778-.4658v3.0144l1.805-1.0366a.65.65 0 0 1 .6548.0043l1.7151 1.0151z"/></svg>
